!!!AGN: Motet
!!!SCT: Sherr (1989)
!!!voices: 4
!!!COM: Maistre Jan
!!!OTL: Vox de celis (BolC Q19)
**kern	**kern	**kern	**kern
*part4	*part3	*part2	*part1
*staff4	*staff3	*staff2	*staff1
*I"Bassus	*I"Tenor II	*I"Tenor I	*I"Altus
*I'B	*I'T. II	*I'T. I	*I'A
*clefF4	*clefGv2	*clefGv2	*clefGv2
*k[]	*k[]	*k[]	*k[]
*C:	*C:	*C:	*C:
*M2/1	*M2/1	*M2/1	*M2/1
*met(C|)	*met(C|)	*met(C|)	*met(C|)
!!section: Prima pars: Vox de celis
!!!OMD: Prima pars: Vox de celis
0r	0G	0r	0r
=1	=1	=1	=1
0r	1A	0r	0r
.	[1c	.	.
=2	=2	=2	=2
0C	2c]	0r	0r
.	4B	.	.
.	4A	.	.
.	2G	.	.
.	2A	.	.
=3	=3	=3	=3
1D	1B	0r	0r
[1F	[1A	.	.
=4	=4	=4	=4
2F]	1A]	1r	0r
4E	.	.	.
4D	.	.	.
2C	1A	[1c	.
2D	.	.	.
=5	=5	=5	=5
1E	2.G	1c]	0r
.	4A	.	.
[1D	2B	1d	.
.	[2A	.	.
=6	=6	=6	=6
1D]	4A]	1.f	0r
.	4G	.	.
.	4F	.	.
.	4E	.	.
1r	2D	.	.
.	2E	4e	.
.	.	4d	.
=7	=7	=7	=7
0r	2F	2.c	1r
.	1A	.	.
.	.	4d	.
.	.	[1e	[1c
.	4G	.	.
.	4F	.	.
=8	=8	=8	=8
1r	1E	1e]	1c]
[1D	[1F	[1A	1d
=9	=9	=9	=9
1D]	0F]	0A]	1.f
1D	.	.	.
.	.	.	4e
.	.	.	4d
=10	=10	=10	=10
1F	2r	1A	2c
.	2D	.	2d
[1E	2.G	2c	1e
.	.	2B	.
.	4A	.	.
=11	=11	=11	=11
2E]	2B	1e	1e
2C	2c	.	.
1D	2B	2.d	1f
.	[2A	.	.
.	.	4c	.
=12	=12	=12	=12
1E	2A]	1B	2e
.	2G#i	.	2.e
[1AA	2.A	2.c	.
.	.	.	4d
.	.	.	4c
.	4B	4d	4B
=13	=13	=13	=13
1AA]	2c	2e	2A
.	2.A	2f	2.c
1r	.	2e	.
.	4G	.	4B
.	2F	[2d	4A
.	.	.	4G
=14	=14	=14	=14
1AA	1E	2d]	1A
.	.	2c#i	.
[1D	1F	1d	[1A
=15	=15	=15	=15
2D]	1E	2r	0A_
2C	.	2e	.
2D	1r	2f	.
2E	.	[2e	.
=16	=16	=16	=16
1F	1D	2e]	1A]
.	.	2d	.
1E	[1G	2c	[1e
.	.	2B	.
=17	=17	=17	=17
2C	2G]	1c	1e]
2E	2G	.	.
1D	2A	1r	1f
.	2B	.	.
=18	=18	=18	=18
2.C	1c	1G	1e
8BBL	.	.	.
8AAJ	.	.	.
1GG	1B	[1d	1r
=19	=19	=19	=19
0r	2G	2d]	1r
.	2A	2c	.
.	1B	2d	1G
.	.	2e	.
=20	=20	=20	=20
1D	0A	1f	1.d
1AA	.	1e	.
.	.	.	2c
=21	=21	=21	=21
0r	1G	1r	2d
.	.	.	2e
.	1D	1d	1f
=22	=22	=22	=22
0r	0r	1.A	1e
.	.	.	2c
.	.	2G	2d
=23	=23	=23	=23
1D	0r	2A	1f
.	.	2B	.
2AA	.	1c	1e
2C	.	.	.
=24	=24	=24	=24
2D	1r	1B	2r
2.E	.	.	1e
.	1G	2G	.
4F	.	.	.
[2G	.	2B	2d
=25	=25	=25	=25
2G]	1D	1A	1d
2F#i	.	.	.
1G	2r	1G	1B
.	[2E	.	.
=26	=26	=26	=26
0r	2E]	1r	1c
.	2F	.	.
.	2.G	1d	1r
.	4A	.	.
=27	=27	=27	=27
1r	2B	1G	1g
.	1c	.	.
1G	.	2r	1d
.	2B	[2G	.
=28	=28	=28	=28
1C	1c	2G]	1.e
.	.	2A	.
[1G	1r	2.B	.
.	.	.	4d
.	.	4c	4c
=29	=29	=29	=29
1G]	2r	2d	1B
.	2G	1e	.
1F	1A	.	1r
.	.	2d	.
=30	=30	=30	=30
2.E	1B	1e	2r
.	.	.	1G
4D	.	.	.
2.C	1c	1E	.
.	.	.	2A
8BBL	.	.	.
8AAJ	.	.	.
=31	=31	=31	=31
1GG	1.d	2.G	2.B
.	.	4A	4c
[1G	.	2B	2d
.	2c	2E	[2e
=32	=32	=32	=32
2G]	2B	2G	2e]
2F	1A	2A	2d
1E	.	2B	1e
.	2G	2c	.
=33	=33	=33	=33
0D	1A	1d	1.f
.	1F	1r	.
.	.	.	2e
=34	=34	=34	=34
2BB	[0G	1r	2d
2C	.	.	1c
1GG	.	1d	.
.	.	.	2B
=35	=35	=35	=35
0C	1G]	1.e	1.c
.	1r	.	.
.	.	2e	4B
.	.	.	4A
=36	=36	=36	=36
0r	1C	1e	1G
.	[1F	2d	[1A
.	.	2c	.
=37	=37	=37	=37
0r	2F]	2.f	1A]
.	2F	.	.
.	.	4e	.
.	1F	4d	1r
.	.	4c	.
.	.	[2d	.
=38	=38	=38	=38
0r	2G	4d]	0r
.	.	4e	.
.	2F	4f	.
.	.	4d	.
.	2.c	4e	.
.	.	4f	.
.	.	[2g	.
.	4B	.	.
=39	=39	=39	=39
0r	1A	2g]	1D
.	.	2f#i	.
.	2.G	[1g	[1G
.	4F	.	.
=40	=40	=40	=40
1r	4E	0g]	2G]
.	4D	.	.
.	1E	.	2G
1GG	.	.	1G
.	2D	.	.
=41	=41	=41	=41
1.C	[0E	2r	2A
.	.	2.g	2G
.	.	.	2.c
.	.	4f	.
2C	.	4e	.
.	.	4d	4B
=42	=42	=42	=42
1C	1E]	1e	4A
.	.	.	4G
.	.	.	2.A
2D	1r	2f	.
.	.	.	4B
2C	.	2e	4c
.	.	.	4A
=43	=43	=43	=43
2G	2r	1d	4B
.	.	.	4c
2F	1A	.	1d
1E	.	1g	.
.	2G	.	2c#i
=44	=44	=44	=44
0D	1A	2f	1d
.	.	2.d	.
.	2D	.	2r
.	.	4c	.
.	[2F	[2A	[2d
=45	=45	=45	=45
1AA	2F]	4A]	2d]
.	.	4G	.
.	2E	2A	2c
2r	2D	1F	1d
[2D	[2F	.	.
=46	=46	=46	=46
2D]	4F]	2D	2A
.	4G	.	.
2C	1A	2E	1c
1D	.	1F	.
.	4G	.	2B
.	4F	.	.
=47	=47	=47	=47
2AA	2.A	1E	2c
1C	.	.	1e
.	8GL	.	.
.	8FJ	.	.
.	1E	2r	.
2D	.	[2A	4d
.	.	.	4c
=48	=48	=48	=48
1E	2r	2A]	1B
.	1e	2G	.
1AA	.	1A	1c
.	2c	.	.
=49	=49	=49	=49
2r	1e	2E	1B
1E	.	1G	.
.	2B	.	1r
2D	[2d	2F	.
=50	=50	=50	=50
1F	2d]	1A	0r
.	2c	.	.
2E	1e	1G	.
2C	.	.	.
=51	=51	=51	=51
2D	2A	1d	2r
2F	1d	.	1A
1E	.	1e	.
.	2c#i	.	2G
=52	=52	=52	=52
0D	1d	2f	1A
.	.	2.d	.
.	2r	.	2D
.	.	4c	.
.	[2d	[2A	[2F
=53	=53	=53	=53
1AA	2d]	4A]	2F]
.	.	4G	.
.	2c	2A	2E
2r	1d	1F	2D
[2D	.	.	[2F
=54	=54	=54	=54
2D]	2A	2D	4F]
.	.	.	4G
2C	1c	2E	1A
1D	.	1F	.
.	2B	.	4G
.	.	.	4F
=55	=55	=55	=55
2AA	2c	1E	2.A
1C	1e	.	.
.	.	.	8GL
.	.	.	8FJ
.	.	2r	1E
2D	4d	[2A	.
.	4c	.	.
=56	=56	=56	=56
1E	1B	2A]	2r
.	.	2G	1e
1AA	1c	1A	.
.	.	.	2c
=57	=57	=57	=57
2r	2.B	2E	1e
1E	.	1G	.
.	8cL	.	.
.	8dJ	.	.
.	2e	.	2B
2D	[2f	2F	[2d
=58	=58	=58	=58
1F	2f]	2.A	2d]
.	2F	.	2c
.	.	4B	.
2E	2.G	4c	[1e
.	.	4B	.
2C	.	4c	.
.	4F	4d	.
=59	=59	=59	=59
2C	4G	2e	2e]
.	4E	.	.
2D	1A	2f	4d
.	.	.	4c
1E	.	1e	1B
.	2G#i	.	.
=60	=60	=60	=60
00AA	00A	00e	00A
=61||	=61||	=61||	=61||
*M2/1	*M2/1	*M2/1	*M2/1
*met(C|)	*met(C|)	*met(C|)	*met(C|)
!!section: Secunda pars: Virgo Sancta Chaterina
!!!OMD: Secunda pars: Virgo Sancta Chaterina
0r	0r	0r	1.A
.	.	.	2G
=62	=62	=62	=62
0r	1.e	0r	1A
.	.	.	1F
.	2d	.	.
=63	=63	=63	=63
0r	0e	1.A	0r
.	.	2G	.
=64	=64	=64	=64
0r	1c	1A	1r
.	2d	[1F	[1A
.	2c	.	.
=65	=65	=65	=65
1r	1d	1F]	2A]
.	.	.	2A
[1E	2.e	[1G	2B
.	.	.	4c
.	8dL	.	4d
.	8cJ	.	.
=66	=66	=66	=66
2E]	2B	2G]	2e
2D	2d	2F	2f
1E	2c	1G	[1e
.	2B	.	.
=67	=67	=67	=67
1C	1c	0A	1e]
[1D	2.F	.	2.d
.	4E	.	4c
=68	=68	=68	=68
2D]	4F	2B	2d
.	4D	.	.
2C	1G	2c	2e
1D	.	2.A	1d
.	2F#i	.	.
.	.	4B	.
=69	=69	=69	=69
0E	1G	2c	2r
.	.	1d	1G
.	1r	.	.
.	.	2c#i	2G
=70	=70	=70	=70
2.D	1.f	1d	0A
8CL	.	.	.
8BBJ	.	.	.
1AA	.	2r	.
.	2e	[2c	.
=71	=71	=71	=71
1D	1f	2c]	1F
.	.	2B	.
2C	2e	2c	2G
2D	2f	2A	2F
=72	=72	=72	=72
1GG	2e	1B	1G
.	1d	.	.
1r	.	1e	1A
.	2c#i	.	.
=73	=73	=73	=73
1.D	1d	0A	2.F
.	.	.	8EL
.	.	.	8DJ
.	1r	.	1E
2C	.	.	.
=74	=74	=74	=74
2.D	1.A	0r	0r
4E	.	.	.
2F	.	.	.
2G	2G	.	.
=75	=75	=75	=75
2D	2.A	0r	2r
2.F	.	.	1A
.	4B	.	.
.	2c	.	.
4E	.	.	.
4D	[2d	.	2A
4C	.	.	.
=76	=76	=76	=76
2BB	4d]	2r	1G
.	4c	.	.
2C	1c	1E	.
1GG	.	.	[1G
.	2B	2D	.
=77	=77	=77	=77
1C	1c	2.E	2G]
.	.	.	2A
.	.	4F	.
2r	1r	2G	2B
[2F	.	[2A	2c
=78	=78	=78	=78
2F]	0r	4A]	2d
.	.	4G	.
2E	.	1G	1c
1D	.	.	.
.	.	2F	2B
=79	=79	=79	=79
1C	0e	1G	1.c
2r	.	1E	.
[2G	.	.	2B
=80	=80	=80	=80
2G]	1d	2r	2G
2F	.	1A	2A
1E	1e	.	1B
.	.	2G	.
=81	=81	=81	=81
2AA	2c	1A	2A
2D	1d	.	1f
2F	.	2F	.
2C	2c	2G	[2e
=82	=82	=82	=82
1D	1B	2.F	4e]
.	.	.	4d
.	.	.	1d
.	.	8EL	.
.	.	8DJ	.
1AA	[1A	1E	.
.	.	.	2c#i
=83	=83	=83	=83
2r	1A]	2D	1d
1D	.	2F	.
.	2r	1E	1r
2C	[2G	.	.
=84	=84	=84	=84
1D	2G]	2r	0r
.	2F#i	1d	.
2BB	1G	.	.
[2C	.	2c	.
=85	=85	=85	=85
2C]	2E	2e	1r
2BB	2G	1d	.
1AA	2F	.	2r
.	2E	[2c	[2e
=86	=86	=86	=86
1GG	1G	4c]	2e]
.	.	4B	.
.	.	2B	2d
1C	1E	2A	1e
.	.	2G	.
=87	=87	=87	=87
0r	2A	2A	2c
.	1G	2.B	1d
.	.	4A	.
.	2A	[2A	2c
=88	=88	=88	=88
1r	1E	2A]	1B
.	.	2G	.
[1AA	[1E	2A	1A
.	.	[2c	.
=89	=89	=89	=89
2AA]	1E]	4c]	1r
.	.	8BL	.
.	.	8AJ	.
2GG	.	2B	.
2.AA	1r	1c	[1E
4BB	.	.	.
=90	=90	=90	=90
2C	0r	1A	2E]
2D	.	.	2D
2.C	.	1r	2.E
8BBL	.	.	4F
8AAJ	.	.	.
=91	=91	=91	=91
2BB	2r	1r	2G
2AA	1A	.	2A
1BB	.	2r	2F
.	2G#i	[2d	4E
.	.	.	4D
=92	=92	=92	=92
1AA	1.A	2d]	2E
.	.	2c#i	2E
1D	.	1d	1F
.	2B	.	.
=93	=93	=93	=93
2r	2c	2e	2E
1D	2.d	1f	2.A
.	4A	.	4F
2C	2c	[2e	2G
=94	=94	=94	=94
1D	2B	4e]	2r
.	.	4d	.
.	2A	1d	1A
1E	2r	.	.
.	2e	2c#i	2G
=95	=95	=95	=95
1D	2f	1d	2A
.	1f	.	2B
2F	.	1r	2c
2G	2d	.	[2B
=96	=96	=96	=96
2D	1f	2r	4B]
.	.	.	4A
2F	.	1d	1A
1E	1g	.	.
.	.	2c	2G
=97	=97	=97	=97
1.D	2f	2.d	1A
.	4F	.	.
.	4G	4e	.
.	4A	2f	2F
.	4B	.	.
2C	2c	[2e	2G
=98	=98	=98	=98
1D	2A	4e]	2.F
.	.	4d	.
.	2B	1d	.
.	.	.	8EL
.	.	.	8DJ
1AA	[1A	.	1E
.	.	2c#i	.
=99	=99	=99	=99
1D	2A]	1d	1F
.	2B	.	.
2r	2c	2e	2E
[2D	[2d	[2f	[2A
=100	=100	=100	=100
2D]	4d]	2f]	4A]
.	4A	.	4F
2C	2c	2.e	2G
1D	2B	.	2r
.	.	4d	.
.	2A	[2d	[2A
=101	=101	=101	=101
1E	2r	2d]	2A]
.	2e	2c#i	2G
1D	2f	1d	2A
.	[2f	.	2B
=102	=102	=102	=102
2F	2f]	1r	2c
2G	2d	.	2.B
2D	1f	2r	.
.	.	.	4A
2F	.	[2d	[2A
=103	=103	=103	=103
1E	1g	2d]	2A]
.	.	2c	2G
[1D	2f	2.d	1A
.	4F	.	.
.	4G	4e	.
=104	=104	=104	=104
2D]	4A	2f	2F
.	4B	.	.
2C	2c	2.e	2G
1D	2A	.	2.F
.	.	4d	.
.	2B	[2d	.
.	.	.	8EL
.	.	.	8DJ
=105	=105	=105	=105
1AA	1A	2d]	1E
.	.	2c#i	.
[1Dl	[1Al	[1dl	[1Dl
=106	=106	=106	=106
00D]	00A]	00d]	00D]
==	==	==	==
*-	*-	*-	*-
!!!system-decoration: [*]
!!!RDF**kern: i = editorial accidental
!!!RDF**kern: l = terminal long
!!!ENC: Benjamin Ory
!!!END: 2021/1/13
!!!EED: Benjamin Ory
!!!EEV: 2021/05/15
!!!YEC: Copyright 2021 Benjamin Ory, All Rights Reserved
!!!ONB: Translated from MusicXML on 2021/05/15